pro/src/icons/stroke-fraud.svg

<svg width="48" height="48" viewBox="0 0 48 48" fill="none" xmlns="http://www.w3.org/2000/svg">
<path id="icon" fill="currentColor" fill-rule="evenodd" clip-rule="evenodd" d="M18 3C14.091 3 11 6.31762 11 10.3192V13.8163C11 17.8088 14.092 21.1254 18 21.1254C21.909 21.1254 25 17.8078 25 13.8062V10.3192C25 6.31762 21.909 3 18 3ZM13 10.3192C13 7.32673 15.289 5.00071 18 5.00071C20.711 5.00071 23 7.32673 23 10.3192V13.8062C23 16.7987 20.711 19.1247 18 19.1247C15.288 19.1247 13 16.7976 13 13.8163V10.3192ZM18 25.5093C12.1015 25.5093 7.15148 29.9027 6.06414 35.7772C8.82881 38.9532 12.725 41.0164 17.0894 41.2697C17.3908 41.2872 17.6944 41.2961 18 41.2961H18L18.0069 41.2961C18.993 41.2961 20.4011 41.2931 21.6769 41.0604C22.3142 40.9441 22.8701 40.7784 23.3011 40.5566C23.7298 40.336 23.9782 40.0902 24.1043 39.8361C24.1556 39.7327 24.2224 39.642 24.3005 39.5656C23.4717 38.0636 23 36.3369 23 34.5C23 28.701 27.701 24 33.5 24C34.0523 24 34.5 24.4477 34.5 25C34.5 25.5523 34.0523 26 33.5 26C28.8056 26 25 29.8056 25 34.5C25 39.1944 28.8056 43 33.5 43C38.1944 43 42 39.1944 42 34.5C42 32.4983 41.3094 30.6608 40.1526 29.2086C39.8085 28.7766 39.8797 28.1475 40.3117 27.8034C40.7437 27.4593 41.3729 27.5305 41.717 27.9625C43.1456 29.756 44 32.0296 44 34.5C44 40.299 39.299 45 33.5 45C30.3031 45 27.4398 43.5713 25.514 41.3174C25.1544 41.7592 24.6954 42.089 24.2161 42.3357C23.5456 42.6807 22.7796 42.8929 22.0356 43.0286C20.5651 43.2969 18.9918 43.2968 18.0258 43.2968H18C12.4702 43.2968 7.545 40.7277 4.22929 36.7158C4.0791 36.534 3.9989 36.3064 4.00001 36.0736C3.99968 36.003 4.00677 35.9326 4.02118 35.8634C5.09583 28.8929 10.9105 23.5085 18 23.5085C19.52 23.5085 20.9866 23.7585 22.3561 24.2149C22.8801 24.3895 23.1633 24.956 22.9887 25.4802C22.8142 26.0043 22.2479 26.2877 21.7239 26.113C20.5534 25.7229 19.3 25.5093 18 25.5093ZM33.5 29.5C33.952 29.5 34.5 29.8158 34.5 30.4077V35.5923C34.5 36.1842 33.952 36.5 33.5 36.5C33.048 36.5 32.5 36.1842 32.5 35.5923V30.4077C32.5 29.8158 33.048 29.5 33.5 29.5ZM33.5 37.5C34.0523 37.5 34.5 37.9477 34.5 38.5C34.5 39.0523 34.0523 39.5 33.5 39.5C32.9477 39.5 32.5 39.0523 32.5 38.5C32.5 37.9477 32.9477 37.5 33.5 37.5Z"/>
</svg>

<svg xmlns="http://www.w3.org/2000/svg" width="48" height="48" fill="none"><path id="icon" fill="currentColor" fill-rule="evenodd" d="M18 3c-3.909 0-7 3.318-7 7.32v3.496c0 3.993 3.092 7.31 7 7.31s7-3.318 7-7.32V10.32C25 6.318 21.909 3 18 3m-5 7.32C13 7.326 15.289 5 18 5s5 2.327 5 5.32v3.486c0 2.993-2.289 5.319-5 5.319-2.712 0-5-2.327-5-5.309zm5 15.19c-5.898 0-10.849 4.393-11.936 10.267 2.765 3.176 6.661 5.24 11.025 5.493q.453.026.911.026h.007c.986 0 2.394-.003 3.67-.236.637-.116 1.193-.282 1.624-.503.429-.221.677-.467.803-.72a1 1 0 0 1 .197-.271A10.45 10.45 0 0 1 23 34.5C23 28.701 27.701 24 33.5 24a1 1 0 1 1 0 2 8.5 8.5 0 1 0 8.5 8.5 8.46 8.46 0 0 0-1.847-5.291 1 1 0 1 1 1.564-1.247A10.46 10.46 0 0 1 44 34.5C44 40.299 39.299 45 33.5 45c-3.197 0-6.06-1.429-7.986-3.683-.36.442-.819.772-1.298 1.019-.67.345-1.436.557-2.18.693-1.47.268-3.044.268-4.01.268H18c-5.53 0-10.455-2.57-13.77-6.581a1 1 0 0 1-.209-.853C5.096 28.893 10.911 23.51 18 23.51c1.52 0 2.987.25 4.356.706a1 1 0 0 1-.632 1.898A11.8 11.8 0 0 0 18 25.509m15.5 3.99c.452 0 1 .316 1 .908v5.184c0 .592-.548.908-1 .908s-1-.316-1-.908v-5.184c0-.592.548-.908 1-.908m0 8a1 1 0 1 1 0 2 1 1 0 0 1 0-2" clip-rule="evenodd"/></svg>
